images/social/dribbble.svg

<svg height="30" viewBox="0 0 30 30" width="30" xmlns="http://www.w3.org/2000/svg"><path d="m14.964857 5.83065696c2.4366745 0 4.7261808.96145625 6.451561 2.69360008 1.7252304 1.73199346 2.6827587 4.03005806 2.6827587 6.47574296s-.9575284 4.7437495-2.6827587 6.4757429c-1.7253801 1.7321439-4.0148864 2.6936001-6.451561 2.6936001s-4.726181-.9614562-6.45156107-2.6936001c-1.72523034-1.7319933-2.68275868-4.030058-2.68275868-6.4757429s.95752833-4.7437496 2.68275868-6.47574297c1.72538017-1.73214381 4.01488647-2.69360007 6.45156107-2.69360007zm1.449143 10.25734304-.1391998.045563c-2.4821431.8511698-4.5647372 2.6351925-5.7837945 4.9899002l-.0780057.1555368.1169904.0924216c.812694.615251 1.783127 1.0419912 2.8332189 1.2702867l.3173392.0625253.1725823.0015939.1332297.014727.0901499.0144505c.1146766.0191876.1632809.025287.2817411.0356248.1070675.0358291.1758797.0418006.3331188.011932l.1059682-.0222698h.223358c.9681486 0 1.9341349-.1963548 2.8654729-.5650928l.2088306-.0891992-.0505794-.372817c-.2655218-1.7473135-.7735511-3.53033-1.4816189-5.2874769zm2.9063378-.3834745c-.4817119 0-.9634728.0351754-1.445355.1055466l-.1279828.0209279.2612475.6448961.0494787.1410669c.5932301 1.7325257.9989094 3.2683671 1.2293458 4.7093342l.016928.1167028.2337748-.1650527c1.5919523-1.1753919 2.705905-2.8947947 3.1045837-4.8400357l.0236415-.1309116-.2287787-.0821157c-.8989163-.3052503-1.7966157-.4747122-2.7196626-.5123082zm-4.0593378-2.1405255-.1635144.0594582c-.6655129.2276717-1.3820836.4058551-2.1955165.55074l-.4150004.0697424c-1.4082276.249485-2.7940077.3651571-4.14739573.390177l-.57801126.0052984-.56856171-.000416-.00728903.0812408-.00590226.2797592c0 2.0614716.77476934 3.9485919 2.17811583 5.3630732l.02407546.0239268.03187432-.0606536c1.38866998-2.5964099 3.68999848-4.5427791 6.40834158-5.4217895l.0927841-.0295569-.070081-.1529388c-.1661814-.3536957-.3322684-.6871829-.4982423-1.0004492zm5.683-3.517-.0619518.0782195c-.8176141.9888797-1.8785305 1.8121238-3.1777976 2.4682236l-.3602513.174791c-.076542.0384211-.1525584.074039-.2370223.1111282l-.2877071.1199552-.3532699.1406825.675 1.408.1929388-.0389626c.4733271-.0863983.9825672-.1353622 1.5211876-.1514919l.409372-.0060126c1.0819997 0 2.1878176.1705964 3.2829356.4972136l.144566.0452535-.0042289-.2146015c-.0670121-1.7035123-.666991-3.300825-1.6997892-4.5808238zm-9.275-2.143-.1151255.05576014c-2.01436962 1.00258722-3.49578637 2.80896816-4.08039561 4.99677106l-.08047889.329501h.05425862c1.45536024-.005155 2.79310128-.079896 4.20078658-.2909835l.6081229-.0990085c.6287767-.0901773 1.3567752-.2580618 2.1407122-.4889002l.1721197-.05314-.0557872-.1116759-.3757702-.630562-.376529-.6147831c-.062513-.1007255-.1248287-.2004759-.1868327-.2990924l-.3673684-.576822-.3543954-.54198617-.3359295-.4995274-.3119708-.44944587c-.0496934-.07031069-.0981597-.13821704-.1452844-.20356022l-.2657339-.36003079zm3.5526501-.66633398-.3112431.00203717c-.5282912.00000331-1.0522163.05226525-1.5551265.15485471l-.3902805.0904421.0449076.05653876c.0899534.11576796.1852386.24262525.2851769.37959283l.3130947.44025453.336939.49504195c.0579172.08674625.1166582.17553056.1761382.26623053l.3650676.56620874.3787281.60631036.3883152.6405378.4514595.7627328.1271732.2475517.207564-.0820626c1.6774883-.6961685 2.9673226-1.5551344 3.8794364-2.67977384l.0779996-.10116356-.0888699-.07850299c-1.3003061-1.10705063-2.9503895-1.74194369-4.68648-1.76683099z" fill="#fff"/></svg>

<?xml version="1.0" encoding="UTF-8"?>
<svg width="30px" height="30px" viewBox="0 0 30 30" version="1.1" xmlns="http://www.w3.org/2000/svg" xmlns:xlink="http://www.w3.org/1999/xlink">
    <title>dribbble</title>
    <g id="dribbble" stroke="none" stroke-width="1" fill="none" fill-rule="evenodd">
        <path d="M14.964857,5.83065696 C17.4015315,5.83065696 19.6910378,6.79211321 21.416418,8.52425704 C23.1416484,10.2562505 24.0991767,12.5543151 24.0991767,15 C24.0991767,17.4456849 23.1416483,19.7437495 21.416418,21.4757429 C19.6910379,23.2078868 17.4015316,24.169343 14.964857,24.169343 C12.5281824,24.169343 10.238676,23.2078868 8.51329593,21.4757429 C6.78806559,19.7437496 5.83053725,17.4456849 5.83053725,15 C5.83053725,12.5543151 6.78806558,10.2562504 8.51329593,8.52425703 C10.2386761,6.79211322 12.5281824,5.83065696 14.964857,5.83065696 Z M16.414,16.088 L16.2748002,16.133563 C13.7926571,16.9847328 11.710063,18.7687555 10.4910057,21.1234632 L10.413,21.279 L10.5299904,21.3714216 C11.3426844,21.9866726 12.3131174,22.4134128 13.3632093,22.6417083 L13.6805485,22.7042336 L13.8531308,22.7058275 L13.9863605,22.7205545 L14.0765104,22.735005 C14.191187,22.7541926 14.2397913,22.760292 14.3582515,22.7706298 C14.465319,22.8064589 14.5341312,22.8124304 14.6913703,22.7825618 L14.7973385,22.760292 L15.0206965,22.760292 C15.9888451,22.760292 16.9548314,22.5639372 17.8861694,22.1951992 L18.095,22.106 L18.0444206,21.733183 C17.7788988,19.9858695 17.2708695,18.202853 16.5628017,16.4457061 L16.414,16.088 Z M19.3203378,15.7045255 C18.8386259,15.7045255 18.356865,15.7397009 17.8749828,15.8100721 L17.747,15.831 L18.0082475,16.4758961 L18.0577262,16.616963 C18.6509563,18.3494887 19.0566356,19.8853301 19.287072,21.3262972 L19.304,21.443 L19.5377748,21.2779473 C21.1297271,20.1025554 22.2436798,18.3831526 22.6423585,16.4379116 L22.666,16.307 L22.4372213,16.2248843 C21.538305,15.919634 20.6406056,15.7501721 19.7175587,15.7125761 L19.3203378,15.7045255 Z M15.261,13.564 L15.0974856,13.6234582 C14.4319727,13.8511299 13.715402,14.0293133 12.9019691,14.1741982 L12.4869687,14.2439406 C11.0787411,14.4934256 9.692961,14.6090977 8.33957297,14.6341176 L7.76156171,14.639416 L7.193,14.639 L7.18571097,14.7202408 L7.17980871,15 C7.17980871,17.0614716 7.95457805,18.9485919 9.35792454,20.3630732 L9.382,20.387 L9.41387432,20.3263464 C10.8025443,17.7299365 13.1038728,15.7835673 15.8222159,14.9045569 L15.915,14.875 L15.844919,14.7220612 C15.6787376,14.3683655 15.5126506,14.0348783 15.3466767,13.721612 L15.261,13.564 Z M20.944,10.047 L20.8820482,10.1252195 C20.0644341,11.1140992 19.0035177,11.9373433 17.7042506,12.5934431 L17.3439993,12.7682341 C17.2674573,12.8066552 17.1914409,12.8422731 17.106977,12.8793623 L16.8192699,12.9993175 L16.466,13.14 L17.141,14.548 L17.3339388,14.5090374 C17.8072659,14.4226391 18.316506,14.3736752 18.8551264,14.3575455 L19.2644984,14.3515329 C20.3464981,14.3515329 21.452316,14.5221293 22.547434,14.8487465 L22.692,14.894 L22.6877711,14.6793985 C22.620759,12.9758862 22.0207801,11.3785735 20.9879819,10.0985747 L20.944,10.047 Z M11.669,7.904 L11.5538745,7.95976014 C9.53950488,8.96234736 8.05808813,10.7687283 7.47347889,12.9565312 L7.393,13.2860322 L7.44725862,13.2860322 C8.90261886,13.2808772 10.2403599,13.2061362 11.6480452,12.9950487 L12.2561681,12.8960402 C12.8849448,12.8058629 13.6129433,12.6379784 14.3968803,12.40714 L14.569,12.354 L14.5132128,12.2423241 L14.1374426,11.6117621 L13.7609136,10.996979 C13.6984006,10.8962535 13.6360849,10.7965031 13.5740809,10.6978866 L13.2067125,10.1210646 L12.8523171,9.57907843 L12.5163876,9.07955103 L12.2044168,8.63010516 C12.1547234,8.55979447 12.1062571,8.49188812 12.0591324,8.42654494 L11.7933985,8.06651415 L11.669,7.904 Z M15.2216501,7.23766602 L14.910407,7.23970319 C14.3821158,7.2397065 13.8581907,7.29196844 13.3552805,7.3945579 L12.965,7.485 L13.0099076,7.54153876 C13.099861,7.65730672 13.1951462,7.78416401 13.2950845,7.92113159 L13.6081792,8.36138612 L13.9451182,8.85642807 C14.0030354,8.94317432 14.0617764,9.03195863 14.1212564,9.1226586 L14.486324,9.68886734 L14.8650521,10.2951777 L15.2533673,10.9357155 L15.7048268,11.6984483 L15.832,11.946 L16.039564,11.8639374 C17.7170523,11.1677689 19.0068866,10.308803 19.9190004,9.18416356 L19.997,9.083 L19.9081301,9.00449701 C18.607824,7.89744638 16.9577406,7.26255332 15.2216501,7.23766602 Z" id="形状" fill="#FFFFFF" fill-rule="nonzero"></path>
    </g>
</svg>
